htdocs/bitrix/js/ui/icons/service/images/ui-service-crm.svg

<svg xmlns="http://www.w3.org/2000/svg" width="42" height="42" viewBox="0 0 42 42"><path fill="#fff" fill-rule="nonzero" d="M13.35548,29.4609 C12.9424,29.4609 12.62013,29.6301 12.38869,29.9684 C12.15724,30.3068 12.04152,30.7734 12.04152,31.3681 C12.04152,32.6044 12.51173,33.2226 13.45216,33.2226 C13.73634,33.2226 14.01173,33.183 14.27834,33.1039 C14.54494,33.0248 14.813,32.9296 15.08253,32.8183 L15.08253,34.2861 C14.5464,34.5234 13.93996,34.642 13.2632,34.642 C12.29347,34.642 11.55007,34.3608 11.03297,33.7983 C10.51588,33.2358 10.25734,32.4228 10.25734,31.3593 C10.25734,30.6943 10.38258,30.1098 10.63307,29.6059 C10.88356,29.102 11.24391,28.7145 11.71413,28.4435 C12.18434,28.1725 12.73732,28.037 13.37306,28.037 C14.0674,28.037 14.73097,28.1879 15.36378,28.4897 L14.83205,29.8564 C14.59474,29.7451 14.35744,29.6513 14.12013,29.5751 C13.88283,29.499 13.62795,29.4609 13.35548,29.4609 Z M18.07086,32.2162 L18.07086,34.5541 L16.33498,34.5541 L16.33498,28.1293 L18.43996,28.1293 C20.18606,28.1293 21.05906,28.7621 21.05906,30.0278 C21.05906,30.7719 20.69586,31.3476 19.96926,31.7548 L21.84136,34.5541 L19.87256,34.5541 L18.51026,32.2162 L18.07086,32.2162 Z M18.07086,30.9111 L18.39606,30.9111 C19.00246,30.9111 19.30566,30.643 19.30566,30.1069 C19.30566,29.6645 19.00836,29.4433 18.41356,29.4433 L18.07086,29.4433 L18.07086,30.9111 Z M25.22516,34.5541 L23.91116,29.9267 L23.87156,29.9267 C23.93316,30.7148 23.96386,31.3271 23.96386,31.7636 L23.96386,34.5541 L22.42576,34.5541 L22.42576,28.1293 L24.73736,28.1293 L26.07766,32.6909 L26.11276,32.6909 L27.42676,28.1293 L29.74266,28.1293 L29.74266,34.5541 L28.14746,34.5541 L28.14746,31.7372 C28.14746,31.5908 28.14966,31.4282 28.15406,31.2495 C28.15846,31.0707 28.17826,30.6328 28.21336,29.9355 L28.17386,29.9355 L26.87746,34.5541 L25.22516,34.5541 Z M28.1738541,24.9623 L31.3907541,24.9623 C31.9968541,23.4387 32.3329541,21.769 32.3329541,20.0218 C32.3329541,12.62751 26.3557541,6.652287 19.2033541,7.127326 C13.3024141,7.519517 8.42689408,12.36073 7.75003608,18.5146 C7.49776808,20.8085 7.83090708,23.0058 8.60938408,24.9623 L11.8264841,24.9623 C10.9051841,23.2878 10.4359841,21.2993 10.6018541,19.1834 C10.9830841,14.32055 14.8099341,10.42485 19.4601541,10.15655 C24.9327541,9.84075 29.4310541,14.35969 29.4310541,20.0218 C29.4310541,21.8234 28.9723541,23.5109 28.1738541,24.9623 Z M21.3928541,23.1739 C20.4381541,24.0168 19.0299541,24.0278 18.0629541,23.2026 C16.7661041,22.0948 16.6822941,20.0537 17.8111541,18.8256 C18.3241541,18.2676 18.9880541,17.9796 19.6610541,17.9658 L26.3790541,13.60732 L22.4018541,20.9473 C22.3873541,21.7769 22.0488541,22.5946 21.3928541,23.1739 Z"/></svg>

<svg xmlns="http://www.w3.org/2000/svg" width="42" height="42" viewBox="-1 0 42 42"><path fill="#fff" d="M13.355 29.46c-.413 0-.735.17-.966.508-.232.339-.347.805-.347 1.4 0 1.236.47 1.855 1.41 1.855.284 0 .56-.04.826-.12.267-.078.535-.173.805-.285v1.468c-.537.237-1.143.356-1.82.356-.97 0-1.713-.281-2.23-.844-.517-.562-.776-1.375-.776-2.439 0-.665.126-1.25.376-1.753.25-.504.61-.892 1.081-1.163.47-.27 1.023-.406 1.66-.406.693 0 1.357.15 1.99.453l-.532 1.366a5.988 5.988 0 0 0-.712-.28 2.49 2.49 0 0 0-.765-.115zm4.716 2.756v2.338h-1.736V28.13h2.105c1.746 0 2.62.633 2.62 1.899 0 .744-.364 1.32-1.09 1.727l1.871 2.8h-1.968l-1.363-2.339h-.44zm0-1.305h.325c.606 0 .91-.268.91-.804 0-.442-.298-.664-.892-.664h-.343v1.468zm7.154 3.643l-1.314-4.627h-.04c.062.788.093 1.4.093 1.837v2.79h-1.538V28.13h2.311l1.34 4.562h.036l1.314-4.562h2.316v6.425h-1.596v-2.817c0-.146.003-.309.007-.487.004-.18.024-.617.06-1.314h-.04l-1.297 4.618h-1.652zm2.949-9.592h3.217c.606-1.523.942-3.193.942-4.94 0-7.394-5.977-13.37-13.13-12.895-5.9.393-10.776 5.234-11.453 11.388a13.42 13.42 0 0 0 .86 6.447h3.216a10.28 10.28 0 0 1-1.224-5.779c.381-4.862 4.208-8.758 8.858-9.026 5.473-.316 9.971 4.203 9.971 9.865 0 1.801-.459 3.489-1.257 4.94zm-6.781-1.788a2.529 2.529 0 0 1-3.33.029c-1.297-1.108-1.38-3.15-.252-4.377.513-.558 1.177-.846 1.85-.86l6.718-4.359-3.977 7.34a3.025 3.025 0 0 1-1.01 2.227z"/></svg>
